img/ic_facebook_logo.svg

<svg xmlns="http://www.w3.org/2000/svg" width="24" height="24" viewBox="0 0 24 24">
    <g fill="none" fill-rule="evenodd">
        <path fill="#F00" fill-opacity=".18" d="M22,0 L2,0 C0.9,0 0,0.9 0,2 L0,22 C0,23.1 0.9,24 2,24 L22,24 C23.1,24 24,23.1 24,22 L24,2 C24,0.9 23.1,0 22,0 L22,0 Z" opacity="0"/>
        <path fill="#FFF" d="M16.0833333,12.5833333 L16.6666667,9.66666667 L13.75,9.66666667 L13.75,7.33333333 C13.75,6.45833333 14.2166667,6.16666667 15.5,6.16666667 L16.6666667,6.16666667 L16.6666667,3.25 L14.3333333,3.25 C11.9416667,3.25 10.25,4.65 10.25,7.33333333 L10.25,9.66666667 L7.33333333,9.66666667 L7.33333333,12.5833333 L10.25,12.5833333 L10.25,20.75 L13.75,20.75 L13.75,12.5833333 L16.0833333,12.5833333 L16.0833333,12.5833333 Z"/>
    </g>
</svg>

<svg xmlns="http://www.w3.org/2000/svg" width="24" height="24" viewBox="0 0 24 24"><path fill="#FFF" d="M16.08 12.58l.6-2.9h-2.93V7.32c0-.87.47-1.16 1.75-1.16h1.17V3.25h-2.34c-2.4 0-4.08 1.4-4.08 4.08v2.34H7.33v2.9h2.92v8.18h3.5v-8.17h2.33z" fill-rule="evenodd"/></svg>
